!!!COM: Bach, Johann Sebastian
!!!CDT: 1685/02/21/-1750/07/28/
!!!OTL@@DE: Erhalt uns, Herr, bei deinem Wort
!!!SCT: BWV 6/6
!!!PC#: 72
!!!AGN: chorale
**harm	**kern	**kern	**kern	**kern
*	*ICvox	*ICvox	*ICvox	*ICvox
*	*Ibass	*Itenor	*Ialto	*Isoprn
*	*I"Bass	*I"Tenor	*I"Alto	*I"Soprano
*	*	*oclefC4	*oclefC3	*oclefC1
*	*clefF4	*clefGv2	*clefG2	*clefG2
*k[b-e-]	*k[b-e-]	*k[b-e-]	*k[b-e-]	*k[b-e-]
*g:	*g:	*g:	*g:	*g:
*M4/4	*M4/4	*M4/4	*M4/4	*M4/4
*met(c)	*met(c)	*met(c)	*met(c)	*met(c)
*MM100	*MM100	*MM100	*MM100	*MM100
i	4GG	4B-	4d	4g
=1	=1	=1	=1	=1
i	4G	4d	4g	4b-
iio6	4C	4c	4e-	4a
V	8DL	8AL	8dL	8f#L
V2	8cJ	8AJ	8dJ	8f#J
i6	8B-L	8B-L	8dL	8gL
viio6	8AJ	8cJ	8f#XJ	8aJ
=2	=2	=2	=2	=2
i	8GL	8dL	8gL	8b-L
iv7	8CJ	8e-J	8gJ	8b-J
V	4D	4A	4f#	4a
i;	4GG;	4B-;	4d;	4g;
i	4G	4d	4g	4b-
=3	=3	=3	=3	=3
B-:V6	4A	4c	4fnX	4cc
V	4F	4f	4a	4cc
I	4B-	4f	4b-	4dd
vi	4G	4g	4d	4b-
=4	=4	=4	=4	=4
ii65	4E-	4g	4b-	4cc
ii	4E-	4c	4g	4cc
g:V;	4D;	4A;	4f#;	4dd;
i	4G	4B-	4g	4dd
=5	=5	=5	=5	=5
B-:ii	8CL	8cL	8gL	8ee-L
viio6	8CJ	8cJ	8aJ	8ee-J
I	4BB-	4F	4b-	4dd
V65	4AA	4F	4cc	4ee-
I	4BB-	4f	4b-	4dd
=6	=6	=6	=6	=6
V7	4F	4e-	4a	4cc
V7	4F	4e-	4a	4cc
I;	4BB-;	4d;	4f;	4b-;
g:V6	4F#	4d	4a	4dd
=7	=7	=7	=7	=7
i	4G	4d	4g	4b-
viio6	4AA	4c	4f#	4cc
i6	4BB-	4d	4g	4b-
V7	4D	4c	4f#	4a
=8	=8	=8	=8	=8
VI	8E-L	8B-L	8gL	8gL
iv7	8CJ	8B-J	8e-J	8gJ
V7	4D	4c	4d	4f#
I;	2GG;	2BnX;	2d;	2g;
==	==	==	==	==
*-	*-	*-	*-	*-
!!!YOR1: 371 vierstimmige Choralges&auml;nge von Johann Sebastian Bach, 
!!!YOR2: 4th ed. by Alfred D&ouml;rffel (Leipzig: Breitkopf und H&auml;rtel, 
!!!YOR2: c.1875). 178 pp. Plate "V.A.10".  reprint: J.S. Bach, 371 Four-Part 
!!!YOR4: Chorales (New York: Associated Music Publishers, Inc., c.1940).
!!!SMS: B&H, 4th ed, Alfred D&ouml;rffel, c.1875, plate V.A.10
!!!EED:  Craig Stuart Sapp
!!!EEV:  2009/05/22
